SVG_Azure_Grouped/Dynamics 365/Dynamics 365.svg

<?xml version="1.0" encoding="UTF-8" standalone="no"?>
<!-- Generated by Microsoft Visio, SVG Export Dynamics 365.svg Page-1 -->

<svg
   xmlns:dc="http://purl.org/dc/elements/1.1/"
   xmlns:cc="http://creativecommons.org/ns#"
   xmlns:rdf="http://www.w3.org/1999/02/22-rdf-syntax-ns#"
   xmlns:svg="http://www.w3.org/2000/svg"
   xmlns="http://www.w3.org/2000/svg"
   xmlns:sodipodi="http://sodipodi.sourceforge.net/DTD/sodipodi-0.dtd"
   xmlns:inkscape="http://www.inkscape.org/namespaces/inkscape"
   width="0.59060407in"
   height="0.78745776in"
   viewBox="0 0 42.523498 56.6971"
   xml:space="preserve"
   class="st7"
   version="1.1"
   id="svg65"
   sodipodi:docname="Dynamics 365.svg"
   style="font-size:12px;overflow:visible;color-interpolation-filters:sRGB;fill:none;fill-rule:evenodd;stroke-linecap:square;stroke-miterlimit:3"
   inkscape:version="0.92.5 (2060ec1f9f, 2020-04-08)"><metadata
   id="metadata69"><rdf:RDF><cc:Work
       rdf:about=""><dc:format>image/svg+xml</dc:format><dc:type
         rdf:resource="http://purl.org/dc/dcmitype/StillImage" /></cc:Work></rdf:RDF></metadata><sodipodi:namedview
   pagecolor="#ffffff"
   bordercolor="#666666"
   borderopacity="1"
   objecttolerance="10"
   gridtolerance="10"
   guidetolerance="10"
   inkscape:pageopacity="0"
   inkscape:pageshadow="2"
   inkscape:window-width="640"
   inkscape:window-height="480"
   id="namedview67"
   showgrid="false"
   inkscape:zoom="1.8365233"
   inkscape:cx="28.34637"
   inkscape:cy="18.900351"
   inkscape:window-x="0"
   inkscape:window-y="0"
   inkscape:window-maximized="0"
   inkscape:current-layer="svg65" />
	<style
   type="text/css"
   id="style2">
	<![CDATA[
		.st1 {fill:url(#grad0-7);stroke:none;stroke-linecap:butt;stroke-width:0.75}
		.st2 {fill:#000000;fill-opacity:0.24;stroke:none;stroke-linecap:butt;stroke-width:0.75}
		.st3 {fill:#000000;fill-opacity:0.32;stroke:none;stroke-linecap:butt;stroke-width:0.75}
		.st4 {fill:url(#grad0-15);stroke:none;stroke-linecap:butt;stroke-width:0.75}
		.st5 {fill:url(#grad0-19);stroke:none;stroke-linecap:butt;stroke-width:0.75}
		.st6 {fill:#b0adff;fill-opacity:0.5;stroke:none;stroke-linecap:butt;stroke-width:0.75}
		.st7 {fill:none;fill-rule:evenodd;font-size:12px;overflow:visible;stroke-linecap:square;stroke-miterlimit:3}
	]]>
	</style>

	<defs
   id="Patterns_And_Gradients">
		<linearGradient
   id="grad0-7"
   x1="0"
   y1="65.380879"
   x2="39.07261"
   y2="65.380879"
   gradientTransform="scale(1.0882303,0.91892309)"
   gradientUnits="userSpaceOnUse">
			<stop
   offset="0"
   stop-color="#0b53ce"
   stop-opacity="1"
   id="stop4" />
			<stop
   offset="1"
   stop-color="#7252aa"
   stop-opacity="1"
   id="stop6" />
		</linearGradient>
		<linearGradient
   id="grad0-15"
   x1="0"
   y1="54.172689"
   x2="34.381649"
   y2="54.172689"
   gradientTransform="scale(0.91880409,1.0883713)"
   gradientUnits="userSpaceOnUse">
			<stop
   offset="0"
   stop-color="#2266e3"
   stop-opacity="1"
   id="stop9" />
			<stop
   offset="1"
   stop-color="#ae7fe2"
   stop-opacity="1"
   id="stop11" />
		</linearGradient>
		<linearGradient
   id="grad0-19"
   x1="0"
   y1="54.172689"
   x2="34.381649"
   y2="54.172689"
   gradientTransform="scale(0.91880409,1.0883713)"
   gradientUnits="userSpaceOnUse">
			<stop
   offset="0"
   stop-color="#94b9ff"
   stop-opacity="1"
   id="stop14" />
			<stop
   offset="0.29"
   stop-color="#94b9ff"
   stop-opacity="1"
   id="stop16" />
			<stop
   offset="1"
   stop-color="#538fff"
   stop-opacity="1"
   id="stop18" />
		</linearGradient>
	</defs>
	<g
   id="g63"
   transform="translate(-4.25203,-5.6672)">
		<title
   id="title22">Page-1</title>
		<g
   id="group21137-1"
   transform="translate(4.25197,-34.0157)">
			<title
   id="title24">Dynamics 365.21137</title>
			<g
   id="group21138-2">
				<title
   id="title26">Sheet.21138</title>
				<g
   id="group21139-3">
					<title
   id="title28">Sheet.21139</title>
					<g
   id="shape21140-4"
   transform="translate(0,-20.3971)">
						<title
   id="title30">Sheet.21140</title>
						<path
   d="m 0,60.08 42.52,14.18 v 19.45 c 0,1.57 -1.66,2.67 -3.25,2.14 l -8.9,-2.97 V 81.87 c 0,-2.37 -1.57,-4.48 -3.94,-5.31 l -4.14,-1.45 c -0.79,-0.28 -1.64,0.27 -1.64,1.06 V 89.64 L 0,82.76 Z"
   class="st1"
   id="path32"
   inkscape:connector-curvature="0"
   style="fill:url(#grad0-7);stroke:none;stroke-width:0.75;stroke-linecap:butt" />
					</g>
					<g
   id="shape21141-8"
   transform="translate(10.9336,-0.907088)">
						<title
   id="title35">Sheet.21141</title>
						<path
   d="m 31.59,58.96 c 0,2.38 -1.6,4.51 -3.99,5.33 L 0,73.7 V 96.38 L 31.59,85.61 Z"
   class="st2"
   id="path37"
   inkscape:connector-curvature="0"
   style="fill:#000000;fill-opacity:0.23999999;stroke:none;stroke-width:0.75;stroke-linecap:butt" />
					</g>
					<g
   id="shape21142-10"
   transform="translate(10.9336)">
						<title
   id="title40">Sheet.21142</title>
						<path
   d="m 31.59,58.96 c 0,2.38 -1.6,4.51 -3.99,5.33 L 0,73.7 V 96.38 L 31.59,85.61 Z"
   class="st3"
   id="path42"
   inkscape:connector-curvature="0"
   style="fill:#000000;fill-opacity:0.31999996;stroke:none;stroke-width:0.75;stroke-linecap:butt" />
					</g>
					<g
   id="shape21143-12"
   transform="translate(10.9336,-1.13386)">
						<title
   id="title45">Sheet.21143</title>
						<path
   d="m 31.59,58.96 c 0,2.38 -1.6,4.51 -3.99,5.33 L 0,73.7 V 96.38 L 31.59,85.61 Z"
   class="st4"
   id="path47"
   inkscape:connector-curvature="0"
   style="fill:url(#grad0-15);stroke:none;stroke-width:0.75;stroke-linecap:butt" />
					</g>
					<g
   id="shape21144-16"
   transform="translate(10.9336,-1.13386)">
						<title
   id="title50">Sheet.21144</title>
						<path
   d="m 31.59,58.96 c 0,2.38 -1.6,4.51 -3.99,5.33 L 0,73.7 V 96.38 L 31.59,85.61 Z"
   class="st5"
   id="path52"
   inkscape:connector-curvature="0"
   style="fill:url(#grad0-19);stroke:none;stroke-width:0.75;stroke-linecap:butt" />
					</g>
					<g
   id="shape21145-20"
   transform="translate(20.6477,-12.473)">
						<title
   id="title55">Sheet.21145</title>
						<path
   d="M 9.72,78.42 0,81.74 v 13.3 c 0,0.79 0.85,1.34 1.64,1.06 l 4.15,-1.46 c 2.37,-0.83 3.93,-2.94 3.93,-5.3 z"
   class="st6"
   id="path57"
   inkscape:connector-curvature="0"
   style="fill:#b0adff;fill-opacity:0.5;stroke:none;stroke-width:0.75;stroke-linecap:butt" />
					</g>
				</g>
			</g>
		</g>
	</g>
</svg>

<?xml version="1.0" encoding="UTF-8" standalone="no"?>
<!DOCTYPE svg PUBLIC "-//W3C//DTD SVG 1.1//EN" "http://www.w3.org/Graphics/SVG/1.1/DTD/svg11.dtd">
<!-- Generated by Microsoft Visio, SVG Export Dynamics 365.svg Page-1 -->
<svg xmlns="http://www.w3.org/2000/svg" xmlns:xlink="http://www.w3.org/1999/xlink" xmlns:ev="http://www.w3.org/2001/xml-events"
		width="0.708661in" height="1.33858in" viewBox="0 0 51.0236 96.378" xml:space="preserve" color-interpolation-filters="sRGB"
		class="st7">
	<style type="text/css">
	<![CDATA[
		.st1 {fill:url(#grad0-7);stroke:none;stroke-linecap:butt;stroke-width:0.75}
		.st2 {fill:#000000;fill-opacity:0.24;stroke:none;stroke-linecap:butt;stroke-width:0.75}
		.st3 {fill:#000000;fill-opacity:0.32;stroke:none;stroke-linecap:butt;stroke-width:0.75}
		.st4 {fill:url(#grad0-15);stroke:none;stroke-linecap:butt;stroke-width:0.75}
		.st5 {fill:url(#grad0-19);stroke:none;stroke-linecap:butt;stroke-width:0.75}
		.st6 {fill:#b0adff;fill-opacity:0.5;stroke:none;stroke-linecap:butt;stroke-width:0.75}
		.st7 {fill:none;fill-rule:evenodd;font-size:12px;overflow:visible;stroke-linecap:square;stroke-miterlimit:3}
	]]>
	</style>

	<defs id="Patterns_And_Gradients">
		<linearGradient id="grad0-7" x1="0" y1="0" x2="1" y2="0" gradientTransform="rotate(70.740804841505 0.5 0.5)">
			<stop offset="0" stop-color="#0b53ce" stop-opacity="1"/>
			<stop offset="1" stop-color="#7252aa" stop-opacity="1"/>
		</linearGradient>
		<linearGradient id="grad0-15" x1="0" y1="0" x2="1" y2="0" gradientTransform="rotate(-90 0.5 0.5)">
			<stop offset="0" stop-color="#2266e3" stop-opacity="1"/>
			<stop offset="1" stop-color="#ae7fe2" stop-opacity="1"/>
		</linearGradient>
		<linearGradient id="grad0-19" x1="0" y1="0" x2="1" y2="0" gradientTransform="rotate(-180 0.5 0.5)">
			<stop offset="0" stop-color="#94b9ff" stop-opacity="1"/>
			<stop offset="0.29" stop-color="#94b9ff" stop-opacity="1"/>
			<stop offset="1" stop-color="#538fff" stop-opacity="1"/>
		</linearGradient>
	</defs>
	<g>
		<title>Page-1</title>
		<g id="group20662-1" transform="translate(4.25197,-34.0157)">
			<title>Dynamics 365.20662</title>
			<g id="group20663-2">
				<title>Sheet.20663</title>
				<g id="group20664-3">
					<title>Sheet.20664</title>
					<g id="shape20665-4" transform="translate(0,-20.3971)">
						<title>Sheet.20665</title>
						<path d="M0 60.08 L42.52 74.26 L42.52 93.71 C42.52 95.28 40.86 96.38 39.27 95.85 L30.37 92.88 L30.37 81.87
									 C30.37 79.5 28.8 77.39 26.43 76.56 L22.29 75.11 C21.5 74.83 20.65 75.38 20.65 76.17 L20.65 89.64
									 L0 82.76 L0 60.08 Z" class="st1"/>
					</g>
					<g id="shape20666-8" transform="translate(10.9336,-0.907088)">
						<title>Sheet.20666</title>
						<path d="M31.59 58.96 C31.59 61.34 29.99 63.47 27.6 64.29 L0 73.7 L0 96.38 L31.59 85.61 L31.59 58.96 Z"
								class="st2"/>
					</g>
					<g id="shape20667-10" transform="translate(10.9336,0)">
						<title>Sheet.20667</title>
						<path d="M31.59 58.96 C31.59 61.34 29.99 63.47 27.6 64.29 L0 73.7 L0 96.38 L31.59 85.61 L31.59 58.96 Z"
								class="st3"/>
					</g>
					<g id="shape20668-12" transform="translate(10.9336,-1.13386)">
						<title>Sheet.20668</title>
						<path d="M31.59 58.96 C31.59 61.34 29.99 63.47 27.6 64.29 L0 73.7 L0 96.38 L31.59 85.61 L31.59 58.96 Z"
								class="st4"/>
					</g>
					<g id="shape20669-16" transform="translate(10.9336,-1.13386)">
						<title>Sheet.20669</title>
						<path d="M31.59 58.96 C31.59 61.34 29.99 63.47 27.6 64.29 L0 73.7 L0 96.38 L31.59 85.61 L31.59 58.96 Z"
								class="st5"/>
					</g>
					<g id="shape20670-20" transform="translate(20.6477,-12.473)">
						<title>Sheet.20670</title>
						<path d="M9.72 78.42 L0 81.74 L0 95.04 C0 95.83 0.85 96.38 1.64 96.1 L5.79 94.64 C8.16 93.81 9.72 91.7 9.72
									 89.34 L9.72 78.42 Z" class="st6"/>
					</g>
				</g>
			</g>
		</g>
	</g>
</svg>
